;Generated with Cura_SteamEngine 15.01
; Default start code
G28 ; Home extruder
M107 ; Turn off fan
G90 ; Absolute positioning
M82 ; Extruder in absolute mode
M140 S55
; Activate all used extruder
M104 T0 S205
G1 Z15 F10000
G92 E0 ; Reset extruder position
; Wait for all used extruders to reach temperature
M109 T0 S205
M190 S55
;Layer count: 92
;LAYER:0
M107
G0 F7800 X23.200 Y23.200 Z0.300
;TYPE:SKIRT
G1 F1500 X-23.200 Y23.200 E2.31491
G1 X-23.200 Y-23.200 E4.62981
G1 X23.200 Y-23.200 E6.94472
G1 X23.200 Y23.200 E9.25962
G1 F2100 E6.25962
G0 F7800 X19.400 Y19.400
;TYPE:WALL-INNER
G1 F2100 E9.25962
G1 F1500 X-19.400 Y19.400 E11.19536
G1 X-19.400 Y-19.400 E13.13110
G1 X19.400 Y-19.400 E15.06684
G1 X19.400 Y19.400 E17.00258
G0 F7800 X10.482 Y10.163
G1 F1500 X11.652 Y8.798 E17.09227
G1 X12.645 Y7.301 E17.18190
G1 X13.446 Y5.691 E17.27161
G1 X14.043 Y3.996 E17.36127
G1 X14.428 Y2.239 E17.45100
G1 X14.594 Y0.450 E17.54064
G1 X14.539 Y-1.347 E17.63034
G1 X14.262 Y-3.124 E17.72006
G1 X13.771 Y-4.852 E17.80968
G1 X13.070 Y-6.508 E17.89940
G1 X12.171 Y-8.065 E17.98910
G1 X11.087 Y-9.499 E18.07878
G1 X9.836 Y-10.790 E18.16847
G1 X8.435 Y-11.917 E18.25817
G1 X6.907 Y-12.864 E18.34786
G1 X5.274 Y-13.615 E18.43753
G1 X3.561 Y-14.160 E18.52721
G1 X1.794 Y-14.490 E18.61689
G1 X0.000 Y-14.601 E18.70657
G1 X-1.794 Y-14.490 E18.79624
G1 X-3.561 Y-14.160 E18.88592
G1 X-5.274 Y-13.615 E18.97561
G1 X-6.907 Y-12.864 E19.06528
G1 X-8.435 Y-11.917 E19.15497
G1 X-9.836 Y-10.790 E19.24467
G1 X-11.087 Y-9.499 E19.33436
G1 X-12.171 Y-8.065 E19.42404
G1 X-13.070 Y-6.508 E19.51374
G1 X-13.771 Y-4.852 E19.60345
G1 X-14.262 Y-3.124 E19.69308
G1 X-14.539 Y-1.347 E19.78280
G1 X-14.594 Y0.450 E19.87250
G1 X-14.428 Y2.239 E19.96213
G1 X-14.043 Y3.996 E20.05187
G1 X-13.446 Y5.691 E20.14153
G1 X-12.645 Y7.301 E20.23124
G1 X-11.652 Y8.798 E20.32086
G1 X-10.482 Y10.163 E20.41056
G1 X-9.153 Y11.375 E20.50029
G1 X-7.686 Y12.414 E20.58998
G1 X-6.102 Y13.264 E20.67966
G1 X-4.426 Y13.914 E20.76935
G1 X-2.682 Y14.352 E20.85906
G1 X-0.898 Y14.573 E20.94874
G1 X0.898 Y14.573 E21.03835
G1 X2.682 Y14.352 E21.12803
G1 X4.426 Y13.914 E21.21774
G1 X6.102 Y13.264 E21.30743
G1 X7.686 Y12.414 E21.39711
G1 X9.153 Y11.375 E21.48680
G1 X10.482 Y10.163 E21.57653
G0 F7800 X10.194 Y9.884
;TYPE:WALL-OUTER
G1 F1500 X11.332 Y8.557 E21.66375
G1 X12.298 Y7.100 E21.75096
G1 X13.077 Y5.535 E21.83818
G1 X13.658 Y3.886 E21.92540
G1 X14.032 Y2.178 E22.01264
G1 X14.193 Y0.437 E22.09987
G1 X14.140 Y-1.310 E22.18706
G1 X13.871 Y-3.038 E22.27431
G1 X13.393 Y-4.719 E22.36150
G1 X12.711 Y-6.329 E22.44873
G1 X11.837 Y-7.844 E22.53599
G1 X10.783 Y-9.238 E22.62318
G1 X9.566 Y-10.494 E22.71044
G1 X8.204 Y-11.590 E22.79765
G1 X6.718 Y-12.511 E22.88488
G1 X5.129 Y-13.241 E22.97212
G1 X3.463 Y-13.771 E23.05934
G1 X1.745 Y-14.092 E23.14653
G1 X0.000 Y-14.200 E23.23376
G1 X-1.745 Y-14.092 E23.32098
G1 X-3.463 Y-13.771 E23.40818
G1 X-5.129 Y-13.241 E23.49540
G1 X-6.718 Y-12.511 E23.58264
G1 X-8.204 Y-11.590 E23.66986
G1 X-9.566 Y-10.494 E23.75708
G1 X-10.783 Y-9.238 E23.84433
G1 X-11.837 Y-7.844 E23.93152
G1 X-12.711 Y-6.329 E24.01878
G1 X-13.393 Y-4.719 E24.10601
G1 X-13.871 Y-3.038 E24.19320
G1 X-14.140 Y-1.310 E24.28045
G1 X-14.193 Y0.437 E24.36765
G1 X-14.032 Y2.178 E24.45488
G1 X-13.658 Y3.886 E24.54211
G1 X-13.077 Y5.535 E24.62934
G1 X-12.298 Y7.100 E24.71655
G1 X-11.332 Y8.557 E24.80377
G1 X-10.194 Y9.884 E24.89098
G1 X-8.902 Y11.063 E24.97825
G1 X-7.475 Y12.073 E25.06547
G1 X-5.935 Y12.900 E25.15268
G1 X-4.305 Y13.532 E25.23990
G1 X-2.609 Y13.958 E25.32714
G1 X-0.873 Y14.173 E25.41441
G1 X0.873 Y14.173 E25.50152
G1 X2.609 Y13.958 E25.58879
G1 X4.305 Y13.532 E25.67603
G1 X5.935 Y12.900 E25.76325
G1 X7.475 Y12.073 E25.85046
G1 X8.902 Y11.063 E25.93768
G1 X10.194 Y9.884 E26.02494
G0 F7800 X10.420 Y10.080
G0 X19.500 Y19.590
G0 X19.800 Y19.800
G1 F1500 X-19.800 Y19.800 E28.00059
G1 X-19.800 Y-19.800 E29.97625
G1 X19.800 Y-19.800 E31.95190
G1 X19.800 Y19.800 E33.92755
G0 F7800 X18.976 Y19.259
;TYPE:SKIN
G1 F1500 X10.266 Y10.549 E34.54209
G0 F7800 X9.970 Y10.819
G1 F1500 X18.410 Y19.259 E35.13758
G0 F7800 X17.845 Y19.259
G1 F1500 X9.674 Y11.088 E35.71408
G0 F7800 X9.379 Y11.358
G1 F1500 X17.279 Y19.259 E36.27151
G0 F7800 X16.713 Y19.259
G1 F1500 X9.063 Y11.609 E36.81126
G0 F7800 X8.732 Y11.843
G1 F1500 X16.148 Y19.259 E37.33449
G0 F7800 X15.582 Y19.259
G1 F1500 X8.401 Y12.078 E37.84115
G0 F7800 X8.069 Y12.312
G1 F1500 X15.016 Y19.259 E38.33130
G0 F7800 X14.451 Y19.259
G1 F1500 X7.736 Y12.544 E38.80508
G0 F7800 X7.368 Y12.742
G1 F1500 X13.885 Y19.259 E39.26489
G0 F7800 X13.319 Y19.259
G1 F1500 X7.000 Y12.940 E39.71073
G0 F7800 X6.632 Y13.138
G1 F1500 X12.754 Y19.259 E40.14263
G0 F7800 X12.188 Y19.259
G1 F1500 X6.264 Y13.335 E40.56060
G0 F7800 X5.867 Y13.504
G1 F1500 X11.622 Y19.259 E40.96665
G0 F7800 X11.057 Y19.259
G1 F1500 X5.460 Y13.662 E41.36155
G0 F7800 X5.052 Y13.821
G1 F1500 X10.491 Y19.259 E41.74527
G0 F7800 X9.925 Y19.259
G1 F1500 X4.644 Y13.978 E42.11787
G0 F7800 X4.212 Y14.111
G1 F1500 X9.359 Y19.259 E42.48105
G0 F7800 X8.794 Y19.259
G1 F1500 X3.760 Y14.225 E42.83623
G0 F7800 X3.307 Y14.338
G1 F1500 X8.228 Y19.259 E43.18343
G0 F7800 X7.662 Y19.259
G1 F1500 X2.856 Y14.452 E43.52256
G0 F7800 X2.368 Y14.531
G1 F1500 X7.097 Y19.259 E43.85618
G0 F7800 X6.531 Y19.259
G1 F1500 X1.865 Y14.593 E44.18539
G0 F7800 X1.362 Y14.656
G1 F1500 X5.965 Y19.259 E44.51016
G0 F7800 X5.400 Y19.259
G1 F1500 X0.853 Y14.712 E44.83097
G0 F7800 X0.287 Y14.712
G1 F1500 X4.834 Y19.259 E45.15179
G0 F7800 X4.268 Y19.259
G1 F1500 X-0.277 Y14.712 E45.47253
G0 F7800 X-0.843 Y14.712
G1 F1500 X3.703 Y19.259 E45.79331
G0 F7800 X3.137 Y19.259
G1 F1500 X-1.480 Y14.641 E46.11910
G0 F7800 X-2.126 Y14.560
G1 F1500 X2.571 Y19.259 E46.45057
G0 F7800 X2.006 Y19.259
G1 F1500 X-2.783 Y14.470 E46.78846
G0 F7800 X-3.538 Y14.280
G1 F1500 X1.440 Y19.259 E47.13972
G0 F7800 X0.874 Y19.259
G1 F1500 X-4.293 Y14.091 E47.50431
G0 F7800 X-5.178 Y13.771
G1 F1500 X0.309 Y19.259 E47.89149
G0 F7800 X-0.256 Y19.259
G1 F1500 X-6.103 Y13.412 E48.30402
G0 F7800 X-7.307 Y12.774
G1 F1500 X-0.822 Y19.259 E48.76158
G0 F7800 X-1.388 Y19.259
G1 F1500 X-8.978 Y11.669 E49.29709
G0 F7800 X-11.747 Y8.899
G1 F1500 X-19.259 Y1.388 E49.82707
G0 F7800 X-19.259 Y1.953
G1 F1500 X-1.953 Y19.259 E51.04810
G0 F7800 X-2.519 Y19.259
G1 F1500 X-19.259 Y2.519 E52.22920
G0 F7800 X-19.259 Y3.085
G1 F1500 X-3.085 Y19.259 E53.37036
G0 F7800 X-3.650 Y19.259
G1 F1500 X-19.259 Y3.650 E54.47166
G0 F7800 X-19.259 Y4.216
G1 F1500 X-4.216 Y19.259 E55.53303
G0 F7800 X-4.782 Y19.259
G1 F1500 X-19.259 Y4.782 E56.55446
G0 F7800 X-19.259 Y5.347
G1 F1500 X-5.347 Y19.259 E57.53602
G0 F7800 X-5.913 Y19.259
G1 F1500 X-19.259 Y5.913 E58.47766
G0 F7800 X-19.259 Y6.479
G1 F1500 X-6.479 Y19.259 E59.37935
G0 F7800 X-7.044 Y19.259
G1 F1500 X-19.259 Y7.044 E60.24119
G0 F7800 X-19.259 Y7.610
G1 F1500 X-7.610 Y19.259 E61.06309
G0 F7800 X-8.176 Y19.259
G1 F1500 X-19.259 Y8.176 E61.84505
G0 F7800 X-19.259 Y8.741
G1 F1500 X-8.741 Y19.259 E62.58715
G0 F7800 X-9.307 Y19.259
G1 F1500 X-19.259 Y9.307 E63.28932
G0 F7800 X-19.259 Y9.873
G1 F1500 X-9.873 Y19.259 E63.95155
G0 F7800 X-10.439 Y19.259
G1 F1500 X-19.259 Y10.439 E64.57385
G0 F7800 X-19.259 Y11.004
G1 F1500 X-11.004 Y19.259 E65.15629
G0 F7800 X-11.570 Y19.259
G1 F1500 X-19.259 Y11.570 E65.69879
G0 F7800 X-19.259 Y12.136
G1 F1500 X-12.136 Y19.259 E66.20135
G0 F7800 X-12.701 Y19.259
G1 F1500 X-19.259 Y12.701 E66.66406
G0 F7800 X-19.259 Y13.267
G1 F1500 X-13.267 Y19.259 E67.08683
G0 F7800 X-13.833 Y19.259
G1 F1500 X-19.259 Y13.833 E67.46966
G0 F7800 X-19.259 Y14.398
G1 F1500 X-14.398 Y19.259 E67.81263
G0 F7800 X-14.964 Y19.259
G1 F1500 X-19.259 Y14.964 E68.11566
G0 F7800 X-19.259 Y15.530
G1 F1500 X-15.530 Y19.259 E68.37877
G0 F7800 X-16.095 Y19.259
G1 F1500 X-19.259 Y16.095 E68.60200
G0 F7800 X-19.259 Y16.661
G1 F1500 X-16.661 Y19.259 E68.78531
G0 F7800 X-17.227 Y19.259
G1 F1500 X-19.259 Y17.227 E68.92867
G0 F7800 X-19.259 Y17.792
G1 F1500 X-17.792 Y19.259 E69.03218
G0 F7800 X-18.358 Y19.259
G1 F1500 X-19.259 Y18.358 E69.09575
G0 F7800 X-19.259 Y18.924
G1 F1500 X-18.924 Y19.259 E69.11939
G0 F7800 X-12.820 Y7.261
G1 F1500 X-19.259 Y0.822 E69.57369
G0 F7800 X-19.259 Y0.256
G1 F1500 X-13.380 Y6.135 E69.98849
G0 F7800 X-13.775 Y5.175
G1 F1500 X-19.259 Y-0.309 E70.37541
G0 F7800 X-19.259 Y-0.874
G1 F1500 X-14.082 Y4.302 E70.74064
G0 F7800 X-14.287 Y3.531
G1 F1500 X-19.259 Y-1.440 E71.09141
G0 F7800 X-19.259 Y-2.006
G1 F1500 X-14.445 Y2.807 E71.43103
G0 F7800 X-14.579 Y2.107
G1 F1500 X-19.259 Y-2.571 E71.76116
G0 F7800 X-19.259 Y-3.137
G1 F1500 X-14.637 Y1.484 E72.08723
G0 F7800 X-14.695 Y0.861
G1 F1500 X-19.259 Y-3.703 E72.40924
G0 F7800 X-19.259 Y-4.268
G1 F1500 X-14.727 Y0.263 E72.72896
G0 F7800 X-14.710 Y-0.285
G1 F1500 X-19.259 Y-4.834 E73.04992
G0 F7800 X-19.259 Y-5.400
G1 F1500 X-14.694 Y-0.835 E73.37201
G0 F7800 X-14.675 Y-1.381
G1 F1500 X-19.259 Y-5.965 E73.69543
G0 F7800 X-19.259 Y-6.531
G1 F1500 X-14.598 Y-1.871 E74.02426
G0 F7800 X-14.522 Y-2.360
G1 F1500 X-19.259 Y-7.097 E74.35848
G0 F7800 X-19.259 Y-7.662
G1 F1500 X-14.446 Y-2.849 E74.69806
G0 F7800 X-14.350 Y-3.319
G1 F1500 X-19.259 Y-8.228 E75.04442
G0 F7800 X-19.259 Y-8.794
G1 F1500 X-14.225 Y-3.760 E75.39959
G0 F7800 X-14.100 Y-4.200
G1 F1500 X-19.259 Y-9.359 E75.76359
G0 F7800 X-19.259 Y-9.925
G1 F1500 X-13.975 Y-4.641 E76.13640
G0 F7800 X-13.832 Y-5.064
G1 F1500 X-19.259 Y-10.491 E76.51931
G0 F7800 X-19.259 Y-11.057
G1 F1500 X-13.664 Y-5.461 E76.91410
G0 F7800 X-13.495 Y-5.859
G1 F1500 X-19.259 Y-11.622 E77.32075
G0 F7800 X-19.259 Y-12.188
G1 F1500 X-13.327 Y-6.256 E77.73928
G0 F7800 X-13.150 Y-6.645
G1 F1500 X-19.259 Y-12.754 E78.17030
G0 F7800 X-19.259 Y-13.319
G1 F1500 X-12.943 Y-7.003 E78.61593
G0 F7800 X-12.736 Y-7.362
G1 F1500 X-19.259 Y-13.885 E79.07616
G0 F7800 X-19.259 Y-14.451
G1 F1500 X-12.529 Y-7.721 E79.55100
G0 F7800 X-12.322 Y-8.080
G1 F1500 X-19.259 Y-15.016 E80.04041
G0 F7800 X-19.259 Y-15.582
G1 F1500 X-12.085 Y-8.408 E80.54657
G0 F7800 X-11.841 Y-8.730
G1 F1500 X-19.259 Y-16.148 E81.06995
G0 F7800 X-19.259 Y-16.713
G1 F1500 X-11.597 Y-9.052 E81.61051
G0 F7800 X-11.354 Y-9.374
G1 F1500 X-19.259 Y-17.279 E82.16825
G0 F7800 X-19.259 Y-17.845
G1 F1500 X-11.099 Y-9.685 E82.74399
G0 F7800 X-10.820 Y-9.972
G1 F1500 X-19.259 Y-18.410 E83.33937
G0 F7800 X-19.259 Y-18.976
G1 F1500 X-10.542 Y-10.259 E83.95440
G0 F7800 X-10.264 Y-10.547
G1 F1500 X-18.976 Y-19.259 E84.56908
G0 F7800 X-18.410 Y-19.259
G1 F1500 X-9.985 Y-10.834 E85.16351
G0 F7800 X-9.680 Y-11.094
G1 F1500 X-17.845 Y-19.259 E85.73959
G0 F7800 X-17.279 Y-19.259
G1 F1500 X-9.366 Y-11.346 E86.29790
G0 F7800 X-9.053 Y-11.598
G1 F1500 X-16.713 Y-19.259 E86.83839
G0 F7800 X-16.148 Y-19.259
G1 F1500 X-8.739 Y-11.851 E87.36110
G0 F7800 X-8.415 Y-12.092
G1 F1500 X-15.582 Y-19.259 E87.86677
G0 F7800 X-15.016 Y-19.259
G1 F1500 X-8.067 Y-12.310 E88.35706
G0 F7800 X-7.718 Y-12.526
G1 F1500 X-14.451 Y-19.259 E88.83211
G0 F7800 X-13.885 Y-19.259
G1 F1500 X-7.368 Y-12.742 E89.29192
G0 F7800 X-7.019 Y-12.959
G1 F1500 X-13.319 Y-19.259 E89.73641
G0 F7800 X-12.754 Y-19.259
G1 F1500 X-6.636 Y-13.142 E90.16804
G0 F7800 X-6.249 Y-13.320
G1 F1500 X-12.188 Y-19.259 E90.58707
G0 F7800 X-11.622 Y-19.259
G1 F1500 X-5.861 Y-13.498 E90.99354
G0 F7800 X-5.474 Y-13.676
G1 F1500 X-11.057 Y-19.259 E91.38745
G0 F7800 X-10.491 Y-19.259
G1 F1500 X-5.061 Y-13.829 E91.77056
G0 F7800 X-4.632 Y-13.966
G1 F1500 X-9.925 Y-19.259 E92.14401
G0 F7800 X-9.359 Y-19.259
G1 F1500 X-4.203 Y-14.102 E92.50783
G0 F7800 X-3.773 Y-14.238
G1 F1500 X-8.794 Y-19.259 E92.86209
G0 F7800 X-8.228 Y-19.259
G1 F1500 X-3.316 Y-14.347 E93.20866
G0 F7800 X-2.839 Y-14.436
G1 F1500 X-7.662 Y-19.259 E93.54895
G0 F7800 X-7.097 Y-19.259
G1 F1500 X-2.363 Y-14.526 E93.88292
G0 F7800 X-1.887 Y-14.615
G1 F1500 X-6.531 Y-19.259 E94.21058
G0 F7800 X-5.965 Y-19.259
G1 F1500 X-1.363 Y-14.656 E94.53531
G0 F7800 X-0.830 Y-14.689
G1 F1500 X-5.400 Y-19.259 E94.85775
G0 F7800 X-4.834 Y-19.259
G1 F1500 X-0.297 Y-14.722 E95.17786
G0 F7800 X0.266 Y-14.724
G1 F1500 X-4.268 Y-19.259 E95.49779
G0 F7800 X-3.703 Y-19.259
G1 F1500 X0.869 Y-14.687 E95.82037
G0 F7800 X1.472 Y-14.649
G1 F1500 X-3.137 Y-19.259 E96.14560
G0 F7800 X-2.571 Y-19.259
G1 F1500 X2.115 Y-14.572 E96.47625
G0 F7800 X2.811 Y-14.441
G1 F1500 X-2.006 Y-19.259 E96.81615
G0 F7800 X-1.440 Y-19.259
G1 F1500 X3.507 Y-14.311 E97.16523
G0 F7800 X4.319 Y-14.065
G1 F1500 X-0.874 Y-19.259 E97.53166
G0 F7800 X-0.309 Y-19.259
G1 F1500 X5.148 Y-13.802 E97.91668
G0 F7800 X6.150 Y-13.365
G1 F1500 X0.256 Y-19.259 E98.33253
G0 F7800 X0.822 Y-19.259
G1 F1500 X7.290 Y-12.790 E98.78892
G0 F7800 X9.033 Y-11.613
G1 F1500 X1.388 Y-19.259 E99.32835
G0 F7800 X1.953 Y-19.259
G1 F1500 X19.259 Y-1.953 E100.54938
G0 F7800 X19.259 Y-1.388
G1 F1500 X11.611 Y-9.036 E101.08899
G0 F7800 X12.761 Y-7.319
G1 F1500 X19.259 Y-0.822 E101.54742
G0 F7800 X19.259 Y-0.256
G1 F1500 X13.378 Y-6.137 E101.96236
G0 F7800 X13.794 Y-5.156
G1 F1500 X19.259 Y0.309 E102.34795
G0 F7800 X19.259 Y0.874
G1 F1500 X14.067 Y-4.316 E102.71420
G0 F7800 X14.292 Y-3.526
G1 F1500 X19.259 Y1.440 E103.06461
G0 F7800 X19.259 Y2.006
G1 F1500 X14.453 Y-2.799 E103.40367
G0 F7800 X14.559 Y-2.128
G1 F1500 X19.259 Y2.571 E103.73524
G0 F7800 X19.259 Y3.137
G1 F1500 X14.663 Y-1.458 E104.05948
G0 F7800 X14.693 Y-0.862
G1 F1500 X19.259 Y3.703 E104.38160
G0 F7800 X19.259 Y4.268
G1 F1500 X14.711 Y-0.279 E104.70245
G0 F7800 X14.728 Y0.303
G1 F1500 X19.259 Y4.834 E105.02214
G0 F7800 X19.259 Y5.400
G1 F1500 X14.697 Y0.837 E105.34405
G0 F7800 X14.649 Y1.355
G1 F1500 X19.259 Y5.965 E105.66931
G0 F7800 X19.259 Y6.531
G1 F1500 X14.601 Y1.873 E105.99795
G0 F7800 X14.539 Y2.377
G1 F1500 X19.259 Y7.097 E106.33097
G0 F7800 X19.259 Y7.662
G1 F1500 X14.438 Y2.841 E106.67112
G0 F7800 X14.336 Y3.305
G1 F1500 X19.259 Y8.228 E107.01847
G0 F7800 X19.259 Y8.794
G1 F1500 X14.234 Y3.769 E107.37301
G0 F7800 X14.113 Y4.213
G1 F1500 X19.259 Y9.359 E107.73608
G0 F7800 X19.259 Y9.925
G1 F1500 X13.966 Y4.632 E108.10953
G0 F7800 X13.818 Y5.050
G1 F1500 X19.259 Y10.491 E108.49343
G0 F7800 X19.259 Y11.057
G1 F1500 X13.671 Y5.468 E108.88773
G0 F7800 X13.510 Y5.873
G1 F1500 X19.259 Y11.622 E109.29335
G0 F7800 X19.259 Y12.188
G1 F1500 X13.322 Y6.251 E109.71224
G0 F7800 X13.134 Y6.629
G1 F1500 X19.259 Y12.754 E110.14439
G0 F7800 X19.259 Y13.319
G1 F1500 X12.946 Y7.006 E110.58980
G0 F7800 X12.757 Y7.383
G1 F1500 X19.259 Y13.885 E111.04856
G0 F7800 X19.259 Y14.451
G1 F1500 X12.532 Y7.723 E111.52322
G0 F7800 X12.306 Y8.063
G1 F1500 X19.259 Y15.016 E112.01379
G0 F7800 X19.259 Y15.582
G1 F1500 X12.080 Y8.403 E112.52031
G0 F7800 X11.854 Y8.743
G1 F1500 X19.259 Y16.148 E113.04277
G0 F7800 X19.259 Y16.713
G1 F1500 X11.607 Y9.062 E113.58262
G0 F7800 X11.346 Y9.367
G1 F1500 X19.259 Y17.279 E114.14089
G0 F7800 X19.259 Y17.845
G1 F1500 X11.086 Y9.671 E114.71758
G0 F7800 X10.825 Y9.976
G1 F1500 X19.259 Y18.410 E115.31264
G0 F7800 X19.259 Y18.976
G1 F1500 X10.562 Y10.279 E115.92626
G0 F7800 X19.259 Y-2.519
G1 F1500 X2.519 Y-19.259 E117.10736
G0 F7800 X3.085 Y-19.259
G1 F1500 X19.259 Y-3.085 E118.24852
G0 F7800 X19.259 Y-3.650
G1 F1500 X3.650 Y-19.259 E119.34982
G0 F7800 X4.216 Y-19.259
G1 F1500 X19.259 Y-4.216 E120.41119
G0 F7800 X19.259 Y-4.782
G1 F1500 X4.782 Y-19.259 E121.43262
G0 F7800 X5.347 Y-19.259
G1 F1500 X19.259 Y-5.347 E122.41418
G0 F7800 X19.259 Y-5.913
G1 F1500 X5.913 Y-19.259 E123.35582
G0 F7800 X6.479 Y-19.259
G1 F1500 X19.259 Y-6.479 E124.25751
G0 F7800 X19.259 Y-7.044
G1 F1500 X7.044 Y-19.259 E125.11935
